automatic/svg/Nintendo - Nintendo 64.svg

<?xml version="1.0" encoding="UTF-8" standalone="no"?>
<svg
   xmlns:dc="http://purl.org/dc/elements/1.1/"
   xmlns:cc="http://creativecommons.org/ns#"
   xmlns:rdf="http://www.w3.org/1999/02/22-rdf-syntax-ns#"
   xmlns:svg="http://www.w3.org/2000/svg"
   xmlns="http://www.w3.org/2000/svg"
   viewBox="0 0 320 320"
   height="320"
   width="320"
   xml:space="preserve"
   version="1.1"
   id="svg2"><metadata
     id="metadata8"><rdf:RDF><cc:Work
         rdf:about=""><dc:format>image/svg+xml</dc:format><dc:type
           rdf:resource="http://purl.org/dc/dcmitype/StillImage" /></cc:Work></rdf:RDF></metadata><defs
     id="defs6"><clipPath
       id="clipPath16"
       clipPathUnits="userSpaceOnUse"><path
         id="path18"
         d="M 0,256 256,256 256,0 0,0 0,256 Z" /></clipPath></defs><g
     transform="matrix(1.25,0,0,-1.25,0,320)"
     id="g10"><g
       id="g12"><g
         clip-path="url(#clipPath16)"
         id="g14"><g
           transform="translate(100,68)"
           id="g20"><path
             id="path22"
             style="fill:#f2f2f2;fill-opacity:1;fill-rule:nonzero;stroke:none"
             d="m 0,0 0,24 c 0,4.4 3.6,8 8,8 l 8,0 0,-6 c 0,-3.309 2.691,-6 6,-6 l 12,0 c 3.309,0 6,2.691 6,6 l 0,6 8,0 c 4.4,0 8,-3.6 8,-8 L 56,0 c 0,-4.4 -3.6,-8 -8,-8 L 8,-8 C 3.6,-8 0,-4.4 0,0 m 36,32 0,-6 c 0,-1.104 -0.896,-2 -2,-2 l -12,0 c -1.104,0 -2,0.896 -2,2 l 0,6 16,0 z M 60,0 60,24 c 0,6.617 -5.383,12 -12,12 l -8,0 -4,0 -16,0 -4,0 -8,0 C 1.383,36 -4,30.617 -4,24 L -4,0 c 0,-6.617 5.383,-12 12,-12 l 40,0 c 6.617,0 12,5.383 12,12" /></g><g
           transform="translate(180,86)"
           id="g24"><path
             id="path26"
             style="fill:#f2f2f2;fill-opacity:1;fill-rule:nonzero;stroke:none"
             d="M 0,0 C 0,5.5 4.5,10 10,10 15.5,10 20,5.5 20,0 l 0,-12 c 0,-5.5 -4.5,-10 -10,-10 -5.5,0 -10,4.5 -10,10 L 0,0 Z m 10,18 c 4.822,0 8.874,-3.46 9.8,-8.019 C 17.272,12.463 13.813,14 10,14 6.187,14 2.728,12.463 0.2,9.98 1.126,14.54 5.178,18 10,18 m 0,-44 c 7.72,0 14,6.28 14,14 l 0,12 0,8 C 24,15.72 17.72,22 10,22 2.28,22 -4,15.72 -4,8 l 0,-8 0,-12 c 0,-7.72 6.28,-14 14,-14" /></g><g
           transform="translate(76,82)"
           id="g28"><path
             id="path30"
             style="fill:#f2f2f2;fill-opacity:1;fill-rule:nonzero;stroke:none"
             d="m 0,0 -20,0 0,4 c 0,5.5 4.5,10 10,10 C -4.5,14 0,9.5 0,4 L 0,0 Z m 0,-8 c 0,-5.5 -4.5,-10 -10,-10 -5.5,0 -10,4.5 -10,10 l 0,4 20,0 0,-4 z m -10,30 c 4.822,0 8.875,-3.46 9.8,-8.02 -2.528,2.483 -5.986,4.02 -9.8,4.02 -3.814,0 -7.272,-1.537 -9.8,-4.02 0.925,4.56 4.978,8.02 9.8,8.02 m 0,4 c -7.72,0 -14,-6.28 -14,-14 l 0,-8 0,-12 c 0,-7.72 6.28,-14 14,-14 7.72,0 14,6.28 14,14 l 0,12 0,8 c 0,7.72 -6.28,14 -14,14" /></g><g
           transform="translate(84,160)"
           id="g32"><path
             id="path34"
             style="fill:#f2f2f2;fill-opacity:1;fill-rule:nonzero;stroke:none"
             d="m 0,0 0,-4 -4,0 c -2.206,0 -4,1.794 -4,4 L 0,0 Z M -8,8 0,8 0,4 -8,4 -8,8 Z M 84,4 4,4 4,8 84,8 84,4 Z m 12,0 -8,0 0,4 8,0 0,-4 z m -4,-8 -4,0 0,4 8,0 c 0,-2.206 -1.794,-4 -4,-4 M 4,0 84,0 84,-4 4,-4 4,0 Z m -8,-8 4,0 4,0 80,0 4,0 4,0 c 4.418,0 8,3.582 8,8 l 0,4 0,6 c 0,1.104 -0.896,2 -2,2 l -10,0 -4,0 -80,0 -4,0 -10,0 c -1.104,0 -2,-0.896 -2,-2 l 0,-6 0,-4 c 0,-4.418 3.582,-8 8,-8" /></g><g
           transform="translate(86,131.9028)"
           id="g36"><path
             id="path38"
             style="fill:#f2f2f2;fill-opacity:1;fill-rule:nonzero;stroke:none"
             d="m 0,0 c 1.195,-0.953 2.525,-1.899 4,-2.82 l 0,14.917 -4,0 L 0,0 Z" /></g><g
           transform="translate(126,120.0518)"
           id="g40"><path
             id="path42"
             style="fill:#f2f2f2;fill-opacity:1;fill-rule:nonzero;stroke:none"
             d="m 0,0 c 0.661,-0.012 1.325,-0.021 2.002,-0.021 l 0.075,0 c 0.651,0 1.288,0.008 1.923,0.019 l 0,23.95 -4,0 L 0,0 Z" /></g><g
           transform="translate(94,126.8467)"
           id="g44"><path
             id="path46"
             style="fill:#f2f2f2;fill-opacity:1;fill-rule:nonzero;stroke:none"
             d="m 0,0 c 1.249,-0.621 2.582,-1.219 4,-1.784 l 0,18.937 -4,0 L 0,0 Z" /></g><g
           transform="translate(166,129.0566)"
           id="g48"><path
             id="path50"
             style="fill:#f2f2f2;fill-opacity:1;fill-rule:nonzero;stroke:none"
             d="m 0,0 c 1.476,0.921 2.805,1.869 4,2.823 l 0,12.12 -4,0 L 0,0 Z" /></g><g
           transform="translate(174,135.5571)"
           id="g52"><path
             id="path54"
             style="fill:#f2f2f2;fill-opacity:1;fill-rule:nonzero;stroke:none"
             d="m 0,0 c 1.574,1.679 2.906,3.565 4,5.6 l 0,2.843 -4,0 L 0,0 Z" /></g><g
           transform="translate(102,123.6348)"
           id="g56"><path
             id="path58"
             style="fill:#f2f2f2;fill-opacity:1;fill-rule:nonzero;stroke:none"
             d="m 0,0 c 1.272,-0.404 2.606,-0.782 4,-1.13 l 0,21.495 -4,0 L 0,0 Z" /></g><g
           transform="translate(158,125.0371)"
           id="g60"><path
             id="path62"
             style="fill:#f2f2f2;fill-opacity:1;fill-rule:nonzero;stroke:none"
             d="m 0,0 c 1.419,0.565 2.751,1.162 4,1.784 l 0,17.179 -4,0 L 0,0 Z" /></g><g
           transform="translate(150,122.4824)"
           id="g64"><path
             id="path66"
             style="fill:#f2f2f2;fill-opacity:1;fill-rule:nonzero;stroke:none"
             d="m 0,0 c 1.394,0.348 2.729,0.724 4,1.128 l 0,20.39 -4,0 L 0,0 Z" /></g><g
           transform="translate(78,141.1714)"
           id="g68"><path
             id="path70"
             style="fill:#f2f2f2;fill-opacity:1;fill-rule:nonzero;stroke:none"
             d="m 0,0 c 1.094,-2.034 2.426,-3.918 4,-5.594 l 0,8.423 -4,0 L 0,0 Z" /></g><g
           transform="translate(142,120.9473)"
           id="g72"><path
             id="path74"
             style="fill:#f2f2f2;fill-opacity:1;fill-rule:nonzero;stroke:none"
             d="m 0,0 c 1.382,0.193 2.714,0.413 4,0.659 l 0,22.394 -4,0 L 0,0 Z" /></g><g
           transform="translate(134,120.1904)"
           id="g76"><path
             id="path78"
             style="fill:#f2f2f2;fill-opacity:1;fill-rule:nonzero;stroke:none"
             d="M 0,0 C 1.372,0.073 2.706,0.171 4,0.292 L 4,23.81 0,23.81 0,0 Z" /></g><g
           transform="translate(110,121.625)"
           id="g80"><path
             id="path82"
             style="fill:#f2f2f2;fill-opacity:1;fill-rule:nonzero;stroke:none"
             d="m 0,0 c 1.286,-0.246 2.619,-0.468 4,-0.661 l 0,23.036 -4,0 L 0,0 Z" /></g><g
           transform="translate(118,120.4951)"
           id="g84"><path
             id="path86"
             style="fill:#f2f2f2;fill-opacity:1;fill-rule:nonzero;stroke:none"
             d="m 0,0 c 1.294,-0.123 2.627,-0.223 4,-0.298 l 0,23.803 -4,0 L 0,0 Z" /></g><g
           transform="translate(220,44)"
           id="g88"><path
             id="path90"
             style="fill:#f2f2f2;fill-opacity:1;fill-rule:nonzero;stroke:none"
             d="m 0,0 c -5.971,0 -11.425,2.188 -15.624,5.796 l 12.508,2.833 0.062,0.014 0.062,0.016 C 5.835,10.957 12,18.91 12,28 l 0,33 9.825,-27.02 C 22.356,32.82 24,25.363 24,24 24,10.745 13.255,0 0,0 m -28.026,4 c 0.867,0 1.734,0.037 2.599,0.094 C -25.609,4.038 -25.799,4 -26,4 l -2.026,0 z M -112,8 l -20,0 -8,0 -15.974,0 c -2.675,0 -5.343,0.298 -7.952,0.89 L -180,12.53 c -6.877,1.79 -12,8.052 -12,15.47 l 0,124 c 0,8.8 7.2,16 16,16 l 11.938,0 0.123,-0.695 11.129,-63.067 c 1.229,-6.963 4.366,-13.271 9.071,-18.241 7.749,-8.186 23.015,-17.949 51.737,-17.967 l 0.079,0 c 28.687,0 43.936,9.768 51.676,17.962 4.695,4.971 7.826,11.272 9.053,18.222 l 11.133,63.091 0.123,0.695 11.938,0 c 8.8,0 16,-7.2 16,-16 L 8,76 8,72 8,28 C 8,20.582 2.877,14.32 -4,12.53 L -20.073,8.89 C -22.683,8.298 -25.351,8 -28.026,8 L -44,8 l -8,0 -20,0 -4,0 -32,0 -4,0 z m -46,-4 c -0.201,0 -0.391,0.038 -0.573,0.094 C -157.708,4.037 -156.841,4 -155.974,4 L -158,4 Z m -50,20 c 0,1.363 1.644,8.82 2.175,9.98 L -196,61 l 0,-33 c 0,-9.09 6.165,-17.043 14.992,-19.341 l 0.062,-0.016 0.062,-0.014 12.508,-2.833 C -172.575,2.188 -178.029,0 -184,0 c -13.255,0 -24,10.745 -24,24 M -24,168 -35.134,104.91 C -36.201,98.86 -38.938,93.204 -43.155,88.739 -50.496,80.968 -64.826,72.03 -91.923,72.03 l -0.077,0 c -27.132,0.017 -41.483,8.951 -48.834,16.717 -4.228,4.466 -6.968,10.13 -8.037,16.186 L -160,168 -24,168 Z M 25.574,35.376 12,72.705 12,152 c 0,11.028 -8.972,20 -20,20 l -11.232,0 -4.768,0 -136,0 -4.768,0 -11.232,0 c -11.028,0 -20,-8.972 -20,-20 l 0,-79.295 -13.574,-37.329 C -210.4,33.221 -212,25.798 -212,24 c 0,-15.439 12.561,-28 28,-28 7.919,0 15.07,3.315 20.167,8.619 0.625,-2.643 3,-4.619 5.833,-4.619 l 16,0 c 2.606,0 4.824,1.674 5.65,4 l 0.7,0 c 0.826,-2.326 3.044,-4 5.65,-4 l 16,0 c 2.606,0 4.824,1.674 5.65,4 l 32.7,0 c 0.827,-2.326 3.044,-4 5.65,-4 l 16,0 c 2.606,0 4.823,1.674 5.65,4 l 0.7,0 c 0.827,-2.326 3.044,-4 5.65,-4 l 16,0 c 2.833,0 5.207,1.976 5.833,4.619 C -15.07,-0.685 -7.92,-4 0,-4 c 15.439,0 28,12.561 28,28 0,1.798 -1.6,9.221 -2.426,11.376" /></g></g></g></g></svg>

<?xml version="1.0" encoding="UTF-8" standalone="no"?>
<svg
   xmlns:dc="http://purl.org/dc/elements/1.1/"
   xmlns:cc="http://creativecommons.org/ns#"
   xmlns:rdf="http://www.w3.org/1999/02/22-rdf-syntax-ns#"
   xmlns:svg="http://www.w3.org/2000/svg"
   xmlns="http://www.w3.org/2000/svg"
   viewBox="0 0 320 234.66665"
   height="234.66666"
   width="320"
   xml:space="preserve"
   id="svg2"
   version="1.1"><metadata
     id="metadata8"><rdf:RDF><cc:Work
         rdf:about=""><dc:format>image/svg+xml</dc:format><dc:type
           rdf:resource="http://purl.org/dc/dcmitype/StillImage" /></cc:Work></rdf:RDF></metadata><defs
     id="defs6"><clipPath
       id="clipPath18"
       clipPathUnits="userSpaceOnUse"><path
         id="path16"
         d="M 0,256 H 256 V 0 H 0 Z" /></clipPath></defs><g
     transform="matrix(1.3333333,0,0,-1.3333333,-10.666666,287.99999)"
     id="g10"><g
       id="g12"><g
         clip-path="url(#clipPath18)"
         id="g14"><g
           transform="translate(100,68)"
           id="g20"><path
             id="path22"
             style="fill:#f2f2f2;fill-opacity:1;fill-rule:nonzero;stroke:none"
             d="m 0,0 v 24 c 0,4.4 3.6,8 8,8 h 8 v -6 c 0,-3.309 2.691,-6 6,-6 h 12 c 3.309,0 6,2.691 6,6 v 6 h 8 c 4.4,0 8,-3.6 8,-8 V 0 c 0,-4.4 -3.6,-8 -8,-8 H 8 C 3.6,-8 0,-4.4 0,0 m 36,32 v -6 c 0,-1.104 -0.896,-2 -2,-2 H 22 c -1.104,0 -2,0.896 -2,2 v 6 z M 60,0 v 24 c 0,6.617 -5.383,12 -12,12 H 40 36 20 16 8 C 1.383,36 -4,30.617 -4,24 V 0 c 0,-6.617 5.383,-12 12,-12 h 40 c 6.617,0 12,5.383 12,12" /></g><g
           transform="translate(180,86)"
           id="g24"><path
             id="path26"
             style="fill:#f2f2f2;fill-opacity:1;fill-rule:nonzero;stroke:none"
             d="M 0,0 C 0,5.5 4.5,10 10,10 15.5,10 20,5.5 20,0 v -12 c 0,-5.5 -4.5,-10 -10,-10 -5.5,0 -10,4.5 -10,10 z m 10,18 c 4.822,0 8.874,-3.46 9.8,-8.019 C 17.272,12.463 13.813,14 10,14 6.187,14 2.728,12.463 0.2,9.98 1.126,14.54 5.178,18 10,18 m 0,-44 c 7.72,0 14,6.28 14,14 V 0 8 C 24,15.72 17.72,22 10,22 2.28,22 -4,15.72 -4,8 V 0 -12 c 0,-7.72 6.28,-14 14,-14" /></g><g
           transform="translate(76,82)"
           id="g28"><path
             id="path30"
             style="fill:#f2f2f2;fill-opacity:1;fill-rule:nonzero;stroke:none"
             d="m 0,0 h -20 v 4 c 0,5.5 4.5,10 10,10 C -4.5,14 0,9.5 0,4 Z m 0,-8 c 0,-5.5 -4.5,-10 -10,-10 -5.5,0 -10,4.5 -10,10 v 4 H 0 Z m -10,30 c 4.822,0 8.875,-3.46 9.8,-8.02 -2.528,2.483 -5.986,4.02 -9.8,4.02 -3.814,0 -7.272,-1.537 -9.8,-4.02 0.925,4.56 4.978,8.02 9.8,8.02 m 0,4 c -7.72,0 -14,-6.28 -14,-14 V 4 -8 c 0,-7.72 6.28,-14 14,-14 7.72,0 14,6.28 14,14 v 12 8 c 0,7.72 -6.28,14 -14,14" /></g><g
           transform="translate(84,160)"
           id="g32"><path
             id="path34"
             style="fill:#f2f2f2;fill-opacity:1;fill-rule:nonzero;stroke:none"
             d="m 0,0 v -4 h -4 c -2.206,0 -4,1.794 -4,4 z M -8,8 H 0 V 4 H -8 Z M 84,4 H 4 v 4 h 80 z m 12,0 h -8 v 4 h 8 z m -4,-8 h -4 v 4 h 8 c 0,-2.206 -1.794,-4 -4,-4 M 4,0 H 84 V -4 H 4 Z m -8,-8 h 4 4 80 4 4 c 4.418,0 8,3.582 8,8 v 4 6 c 0,1.104 -0.896,2 -2,2 H 88 84 4 0 -10 c -1.104,0 -2,-0.896 -2,-2 V 4 0 c 0,-4.418 3.582,-8 8,-8" /></g><g
           transform="translate(86,131.9028)"
           id="g36"><path
             id="path38"
             style="fill:#f2f2f2;fill-opacity:1;fill-rule:nonzero;stroke:none"
             d="M 0,0 C 1.195,-0.953 2.525,-1.899 4,-2.82 V 12.097 H 0 Z" /></g><g
           transform="translate(126,120.0518)"
           id="g40"><path
             id="path42"
             style="fill:#f2f2f2;fill-opacity:1;fill-rule:nonzero;stroke:none"
             d="m 0,0 c 0.661,-0.012 1.325,-0.021 2.002,-0.021 h 0.075 c 0.651,0 1.288,0.008 1.923,0.019 v 23.95 H 0 Z" /></g><g
           transform="translate(94,126.8467)"
           id="g44"><path
             id="path46"
             style="fill:#f2f2f2;fill-opacity:1;fill-rule:nonzero;stroke:none"
             d="M 0,0 C 1.249,-0.621 2.582,-1.219 4,-1.784 V 17.153 H 0 Z" /></g><g
           transform="translate(166,129.0566)"
           id="g48"><path
             id="path50"
             style="fill:#f2f2f2;fill-opacity:1;fill-rule:nonzero;stroke:none"
             d="m 0,0 c 1.476,0.921 2.805,1.869 4,2.823 v 12.12 H 0 Z" /></g><g
           transform="translate(174,135.5571)"
           id="g52"><path
             id="path54"
             style="fill:#f2f2f2;fill-opacity:1;fill-rule:nonzero;stroke:none"
             d="M 0,0 C 1.574,1.679 2.906,3.565 4,5.6 V 8.443 H 0 Z" /></g><g
           transform="translate(102,123.6348)"
           id="g56"><path
             id="path58"
             style="fill:#f2f2f2;fill-opacity:1;fill-rule:nonzero;stroke:none"
             d="M 0,0 C 1.272,-0.404 2.606,-0.782 4,-1.13 V 20.365 H 0 Z" /></g><g
           transform="translate(158,125.0371)"
           id="g60"><path
             id="path62"
             style="fill:#f2f2f2;fill-opacity:1;fill-rule:nonzero;stroke:none"
             d="M 0,0 C 1.419,0.565 2.751,1.162 4,1.784 V 18.963 H 0 Z" /></g><g
           transform="translate(150,122.4824)"
           id="g64"><path
             id="path66"
             style="fill:#f2f2f2;fill-opacity:1;fill-rule:nonzero;stroke:none"
             d="m 0,0 c 1.394,0.348 2.729,0.724 4,1.128 v 20.39 H 0 Z" /></g><g
           transform="translate(78,141.1714)"
           id="g68"><path
             id="path70"
             style="fill:#f2f2f2;fill-opacity:1;fill-rule:nonzero;stroke:none"
             d="M 0,0 C 1.094,-2.034 2.426,-3.918 4,-5.594 V 2.829 H 0 Z" /></g><g
           transform="translate(142,120.9473)"
           id="g72"><path
             id="path74"
             style="fill:#f2f2f2;fill-opacity:1;fill-rule:nonzero;stroke:none"
             d="M 0,0 C 1.382,0.193 2.714,0.413 4,0.659 V 23.053 H 0 Z" /></g><g
           transform="translate(134,120.1904)"
           id="g76"><path
             id="path78"
             style="fill:#f2f2f2;fill-opacity:1;fill-rule:nonzero;stroke:none"
             d="M 0,0 C 1.372,0.073 2.706,0.171 4,0.292 V 23.81 H 0 Z" /></g><g
           transform="translate(110,121.625)"
           id="g80"><path
             id="path82"
             style="fill:#f2f2f2;fill-opacity:1;fill-rule:nonzero;stroke:none"
             d="M 0,0 C 1.286,-0.246 2.619,-0.468 4,-0.661 V 22.375 H 0 Z" /></g><g
           transform="translate(118,120.4951)"
           id="g84"><path
             id="path86"
             style="fill:#f2f2f2;fill-opacity:1;fill-rule:nonzero;stroke:none"
             d="M 0,0 C 1.294,-0.123 2.627,-0.223 4,-0.298 V 23.505 H 0 Z" /></g><g
           transform="translate(220,44)"
           id="g88"><path
             id="path90"
             style="fill:#f2f2f2;fill-opacity:1;fill-rule:nonzero;stroke:none"
             d="m 0,0 c -5.971,0 -11.425,2.188 -15.624,5.796 l 12.508,2.833 0.062,0.014 0.062,0.016 C 5.835,10.957 12,18.91 12,28 V 61 L 21.825,33.98 C 22.356,32.82 24,25.363 24,24 24,10.745 13.255,0 0,0 m -28.026,4 c 0.867,0 1.734,0.037 2.599,0.094 C -25.609,4.038 -25.799,4 -26,4 Z M -112,8 h -20 -8 -15.974 c -2.675,0 -5.343,0.298 -7.952,0.89 L -180,12.53 c -6.877,1.79 -12,8.052 -12,15.47 v 124 c 0,8.8 7.2,16 16,16 h 11.938 l 0.123,-0.695 11.129,-63.067 c 1.229,-6.963 4.366,-13.271 9.071,-18.241 7.749,-8.186 23.015,-17.949 51.737,-17.967 h 0.079 c 28.687,0 43.936,9.768 51.676,17.962 4.695,4.971 7.826,11.272 9.053,18.222 l 11.133,63.091 0.123,0.695 H -8 c 8.8,0 16,-7.2 16,-16 V 76 72 28 C 8,20.582 2.877,14.32 -4,12.53 L -20.073,8.89 C -22.683,8.298 -25.351,8 -28.026,8 H -44 h -8 -20 -4 -32 z m -46,-4 c -0.201,0 -0.391,0.038 -0.573,0.094 0.865,-0.057 1.732,-0.094 2.599,-0.094 z m -50,20 c 0,1.363 1.644,8.82 2.175,9.98 L -196,61 V 28 c 0,-9.09 6.165,-17.043 14.992,-19.341 l 0.062,-0.016 0.062,-0.014 12.508,-2.833 C -172.575,2.188 -178.029,0 -184,0 c -13.255,0 -24,10.745 -24,24 M -24,168 -35.134,104.91 C -36.201,98.86 -38.938,93.204 -43.155,88.739 -50.496,80.968 -64.826,72.03 -91.923,72.03 H -92 c -27.132,0.017 -41.483,8.951 -48.834,16.717 -4.228,4.466 -6.968,10.13 -8.037,16.186 L -160,168 Z M 25.574,35.376 12,72.705 V 152 c 0,11.028 -8.972,20 -20,20 H -19.232 -24 -160 -164.768 -176 c -11.028,0 -20,-8.972 -20,-20 V 72.705 L -209.574,35.376 C -210.4,33.221 -212,25.798 -212,24 c 0,-15.439 12.561,-28 28,-28 7.919,0 15.07,3.315 20.167,8.619 0.625,-2.643 3,-4.619 5.833,-4.619 h 16 c 2.606,0 4.824,1.674 5.65,4 h 0.7 c 0.826,-2.326 3.044,-4 5.65,-4 h 16 c 2.606,0 4.824,1.674 5.65,4 h 32.7 c 0.827,-2.326 3.044,-4 5.65,-4 h 16 c 2.606,0 4.823,1.674 5.65,4 h 0.7 c 0.827,-2.326 3.044,-4 5.65,-4 h 16 c 2.833,0 5.207,1.976 5.833,4.619 C -15.07,-0.685 -7.92,-4 0,-4 c 15.439,0 28,12.561 28,28 0,1.798 -1.6,9.221 -2.426,11.376" /></g></g></g></g></svg>
